**kern	**kern	**kern	**kern
*MM60	*MM60	*MM60	*MM60
*k[b-e-a-]	*k[b-e-a-]	*k[b-e-a-]	*k[b-e-a-]
*M2/2	*M2/2	*M2/2	*M2/2
*tb32	*tb32	*tb32	*tb32
=1	=1	=1	=1
1r	4r	1r	1r
.	8r	.	.
.	8e-	.	.
.	4f	.	.
.	4g	.	.
=2	=2	=2	=2
1r	4c	1r	1r
.	8r	.	.
.	8g	.	.
.	4a-	.	.
.	4a-M	.	.
=3	=3	=3	=3
1r	4g	8r	1r
.	.	8gg	.
.	8r	8g	.
.	8g	8gg	.
.	4f	8a	.
.	.	8ff	.
.	4fM	8b	.
.	.	8gg	.
=4	=4	=4	=4
1r	4e-	8cc	1r
.	.	16ee-	.
.	.	16dd	.
.	8r	16cc	.
.	.	16b-	.
.	8f	16a-	.
.	.	16g	.
.	4d	8f	.
.	.	16dd	.
.	.	16cc	.
.	8r	16b-	.
.	.	16a-	.
.	8d	16g	.
.	.	16f	.
=5	=5	=5	=5
1r	4c	8e-	1r
.	.	16cc	.
.	.	16b-	.
.	8r	16a-	.
.	.	16g	.
.	8d	16f	.
.	.	16e-	.
.	8B	4d	.
.	8G	.	.
.	[4c	8r	.
.	.	8e-	.
=6	=6	=6	=6
1r	4c]	2dT	1r
.	4B	.	.
.	4c	8c	.
.	.	16e-	.
.	.	16d	.
.	8r	16c	.
.	.	16d	.
.	8c	16e-	.
.	.	16f	.
=7	=7	=7	=7
1r	4B-	8g	4r
.	.	8d	.
.	8r	2g	8r
.	8B-	.	8b-
.	2AT	.	4cc
.	.	4f#	4dd
=8	=8	=8	=8
2r	4G	4g	4g
.	4r	2b-	8r
.	.	.	8dd
2C	2r	.	4ee-
.	.	[4a	4ee-M
=9	=9	=9	=9
2BB-	8r	4a]	4dd
.	8d	.	.
.	8D	2g	8r
.	8d	.	8dd
2AA	8E	.	4cc
.	8c	.	.
.	8F#	4f#	4ccM
.	8d	.	.
=10	=10	=10	=10
8r	8G	4g	4b-
8GG	16B-	.	.
.	16A	.	.
4C	16G	2e-	8r
.	16F	.	.
.	16E-	.	8cc
.	16D	.	.
8r	8C	.	4aT
8FF	16A	.	.
.	16G	.	.
4BB-	16F	[4d	8r
.	16E-	.	.
.	16D	.	8b-
.	16C	.	.
=11	=11	=11	=11
8r	8BB-	4d]	4gT
8EE-	16G	.	.
.	16F	.	.
4AA	16E-	2c	8r
.	16D	.	.
.	16C	.	8a
.	16BB-	.	.
8r	4AA	.	4f#T
8DD	.	.	.
4GG	8BB-	4B-	[4g
.	8GG	.	.
=12	=12	=12	=12
2DD	4D	2A	4g]
.	4DD	.	4f#
4GG	4GG	4G	8g
.	.	.	8dd
4r	4r	4r	8gg
.	.	.	8g
=13	=13	=13	=13
2r	1r	2f	8a
.	.	.	8ff
.	.	.	8b
.	.	.	8gg
4r	.	2e-	8ee-
.	.	.	8g
8r	.	.	[4cc
8E-	.	.	.
=14	=14	=14	=14
4F	1r	2d	4cc]
4G	.	.	4bT
4C	.	4c	4cc
8r	.	4ee-	4r
8G	.	.	.
=15	=15	=15	=15
4A-	2r	4ee-	2ff
4A-	.	2dd	.
4G	8r	.	2ee-
.	8g	.	.
8r	8G	[4cc	.
8G	8g	.	.
=16	=16	=16	=16
4F	8A	4cc]	2dd
.	8f	.	.
4F	8B	4b	.
.	8g	.	.
4E-	8c	4cc	8r
.	16e-	.	8cc
.	16d	.	.
8r	16c	4ff	[4aa-
.	16B-	.	.
8F	16A-	.	.
.	16G	.	.
=17	=17	=17	=17
4D	8F	8r	4aa-]
.	16d	8b-	.
.	16c	.	.
8r	16B-	4ee-	2gg
.	16A-	.	.
8E-	16G	.	.
.	16F	.	.
4C	8E-	8r	.
.	16c	8a-	.
.	16B-	.	.
8r	16A-	4dd	[4ff
.	16G	.	.
8D	16F	.	.
.	16E-	.	.
=18	=18	=18	=18
4BB-	8D	8r	4ff]
.	16B-	8g	.
.	16A-	.	.
8r	16G	4cc	2ee-
.	16F	.	.
8C	16E-	.	.
.	16D	.	.
4AA-	8C	8r	.
.	16A-	8f	.
.	16G	.	.
8r	16F	[4a-	4ff
.	16E-	.	.
8FF	16D	.	.
.	16C	.	.
=19	=19	=19	=19
4B-	8BB-	4a-]	8dd
.	8B-	.	8b-
8r	8BB-	4g	2ee-
8G	8B-	.	.
4A-	8C	2f	.
.	8A-	.	.
4B-	8D	.	[4dd
.	8B-	.	.
=20	=20	=20	=20
4G	8E-	2e-	8dd]
.	16G	.	8g
.	16F	.	.
8r	16E-	.	[4cc
.	16D	.	.
8A-	16C	.	.
.	16BB-	.	.
4F	8AA-	2d	8cc]
.	16F	.	8f
.	16E-	.	.
8r	16D	.	[4b-
.	16C	.	.
8G	16BB-	.	.
.	16AA-	.	.
=21	=21	=21	=21
4E-	8GG	2c	8b-]
.	16E-	.	8e-
.	16D	.	.
8r	16C	.	2a-
.	16BB-	.	.
8F	16AA-	.	.
.	16GG	.	.
4D	4FF	4B-	.
[4E-	4r	8r	4g
.	.	8G	.
=22	=22	=22	=22
4E-]	1r	4A-	2f
4D	.	4B-	.
4E-	.	4E-	4e-
[4g	.	8r	4r
.	.	8B-	.
=23	=23	=23	=23
4g]	2A-	4c	2r
2f	.	4cM	.
.	2G	4B-	8r
.	.	.	8bb-
[4e-	.	8r	8b-
.	.	8B-	8bb-
=24	=24	=24	=24
4e-]	2F	4A-	8cc
.	.	.	8aa-
4d	.	4A-M	8dd
.	.	.	8bb-
4e-	4E-	4G	8ee-
.	.	.	16ccc
.	.	.	16bb-
4r	8r	8r	16aa-
.	.	.	16gg
.	8AA-	8A-	16ff
.	.	.	16ee-
=25	=25	=25	=25
1r	4BB-	4F	8dd
.	.	.	16bb-
.	.	.	16aa-
.	8r	8r	16gg
.	.	.	16ff
.	8GG	8G	16ee-
.	.	.	16dd
.	4AA-	4E-T	8cc
.	.	.	16aa-
.	.	.	16gg
.	8r	8r	16ff
.	.	.	16ee-
.	8FF	8F	16dd
.	.	.	16cc
=26	=26	=26	=26
1r	4GG	4DT	8b
.	.	.	8g
.	4r	4E-	2cc
.	2r	2D	.
.	.	.	4bT
=27	=27	=27	=27
1r	4C	4c	4cc
.	2e-	8r	4r
.	.	8g	.
.	.	4a-	2ff
.	[4d	4a-M	.
=28	=28	=28	=28
8r	4d]	4g	2ee-
8G	.	.	.
8GG	2c	8r	.
8G	.	8g	.
8AA	.	4f	2dd
8F	.	.	.
8BB	4B	4fM	.
8G	.	.	.
=29	=29	=29	=29
8C	4c	4e-	8r
8E-	.	.	8cc
8C	2A-	8r	4ff
8AA-	.	8f	.
8FF	.	4d	8r
8D	.	.	8b-
8BB-	[4G	8r	4ee-
8GG	.	8e-	.
=30	=30	=30	=30
8EE-	4G]	4cT	8r
8C	.	.	8a-
8AA-	2F	8r	4dd
8FF	.	8d	.
4DD	.	4BT	8r
.	.	.	8g
8EE-	4E-	[4c	4cc
8CC	.	.	.
=31	=31	=31	=31
2GG	2D	4c]	8dd
.	.	.	16gg
.	.	.	16aa-
.	.	2B-	16gg
.	.	.	16ff
.	.	.	16ee
.	.	.	16dd
4CC	4C	.	8ee
.	.	.	8cc
4r	8r	4A-	[4ff
.	8AA-	.	.
=32	=32	=32	=32
2r	4BB-	8G	4ff]
.	.	16cc	.
.	.	16dd	.
.	4C	16cc	2ee-
.	.	16b-	.
.	.	16a	.
.	.	16g	.
4r	4FF	8a	.
.	.	8f	.
8r	4r	[4b-	4dd
8D	.	.	.
=33	=33	=33	=33
4E-	1r	4b-]	8cc
.	.	.	16ff
.	.	.	16gg
4F	.	2a-	16ff
.	.	.	16ee-
.	.	.	16dd
.	.	.	16cc
4BB-	.	.	8dd
.	.	.	8b-
8r	.	4g	[4ee-
8GG	.	.	.
=34	=34	=34	=34
4AA	2f	8f	4ee-]
.	.	16dd	.
.	.	16cc	.
4BB	.	16b	2dd
.	.	16a	.
.	.	16g	.
.	.	16f	.
4C	2e-	8e-	.
.	.	16cc	.
.	.	16b-	.
4CC	.	16a-	[4cc
.	.	16g	.
.	.	16f	.
.	.	16e-	.
=35	=35	=35	=35
4GG	2d	8d	4cc]
.	.	16b-	.
.	.	16a-	.
4G	.	16g	2b-
.	.	16f	.
.	.	16e-	.
.	.	16d	.
4A	2c	8c	.
.	.	16a	.
.	.	16g	.
4D	.	16f	[4a-
.	.	16e-	.
.	.	16d	.
.	.	16c	.
=36	=36	=36	=36
4G	2B-	8B-	4a-]
.	.	16g	.
.	.	16f	.
4GG	.	16e-	[4g
.	.	16d	.
.	.	16c	.
.	.	16B	.
4D	2r	4A	8g]
.	.	.	8f#
4r	.	8r	[4dd
.	.	8d	.
=37	=37	=37	=37
1r	2r	8e	4dd]
.	.	16a	.
.	.	16b-	.
.	.	16a	2cc
.	.	16g	.
.	.	16f#	.
.	.	16e	.
.	4r	8f#	.
.	.	8d	.
.	8r	[4g	4b-
.	8B-	.	.
=38	=38	=38	=38
2r	4c	4g]	2a
.	4d	4f#	.
4r	4G	4g	4g
[4BB-	4r	8r	4r
.	.	8d	.
=39	=39	=39	=39
4BB-]	2c	4e-	2r
2AA	.	4e-M	.
.	2B-	4d	8r
.	.	.	8dd
[4GG	.	8r	8d
.	.	8d	8dd
=40	=40	=40	=40
4GG]	2A	4c	8e
.	.	.	8cc
4FF#	.	4cM	8f#
.	.	.	8dd
4GG	8r	4B-	8g
.	8G	.	16b-
.	.	.	16a
[4E-	4c	8r	16g
.	.	.	16f
.	.	8c	16e-
.	.	.	16d
=41	=41	=41	=41
4E-]	8r	4AT	8c
.	8F	.	16a
.	.	.	16g
2D	4B-	8r	16f
.	.	.	16e-
.	.	8B-	16d
.	.	.	16c
.	8r	4GT	8B-
.	8E-	.	16g
.	.	.	16f
[4C	4A	8r	16e-
.	.	.	16d
.	.	8A	16c
.	.	.	16B-
=42	=42	=42	=42
4C]	8r	4F#T	4A
.	8D	.	.
8r	2G	2.r	4B-
8BB-	.	.	.
4C	.	.	2AT
4D	4F#	.	.
=43	=43	=43	=43
4GG	8G	8G	4r
.	8r	8g	.
4r	2.r	8G	8r
.	.	8g	8b
4r	.	8A	4cc
.	.	8f	.
4GG	.	8B	4dd
.	.	8g	.
=44	=44	=44	=44
4C	1r	4e-	8g
.	.	.	8ccc
4r	.	8r	8cc
.	.	8e	8ccc
4r	.	4f	8dd
.	.	.	8bb
4CC	.	4g	8ee
.	.	.	8ccc
=45	=45	=45	=45
4FF	1r	8c	4aa-
.	.	8f	.
4r	.	8F	8r
.	.	8f	8aa
4r	.	8G	4bb-
.	.	8e-	.
4FF	.	8A	4ccc
.	.	8f	.
=46	=46	=46	=46
4BB-	1r	4d	8ff
.	.	.	8bb-
4r	.	8r	8dd
.	.	8d	8bb-
4r	.	4e-	8cc
.	.	.	8aa
4BB-	.	4f	8dd
.	.	.	8bb-
=47	=47	=47	=47
4E-	1r	4B-	8gg
.	.	.	16ccc
.	.	.	16bb-
4G	.	8r	16aa-
.	.	.	16gg
.	.	8a-	16ff
.	.	.	16ee-
4B-	.	4fT	8dd
.	.	.	16bb-
.	.	.	16aa-
4E-	.	8r	16gg
.	.	.	16ff
.	.	8g	16ee-
.	.	.	16dd
=48	=48	=48	=48
4A-	1r	4e-	8cc
.	.	.	16aa-
.	.	.	16gg
4D	.	8r	16ff
.	.	.	16ee-
.	.	8f	16dd
.	.	.	16cc
4G	.	4dT	8b
.	.	.	8g
4C	.	4e-	8r
.	.	.	8ee-
=49	=49	=49	=49
4BB-	4G	1r	4dd
4AA-	4c	.	4cc
4GG	4BT	.	4gg
4EE-	4r	.	8r
.	.	.	8cc
=50	=50	=50	=50
4FF	2r	1r	4b
4GG	.	.	4bT
4CC	8r	.	4cc
.	8C	.	.
4r	8c	.	8r
.	8C	.	8cc
=51	=51	=51	=51
1r	8B-	1r	4dd
.	8D	.	.
.	8A-	.	4ddT
.	8BB-	.	.
.	8G	.	4ee-
.	16E-	.	.
.	16F	.	.
.	16G	.	8r
.	16A-	.	.
.	16B-	.	16dd
.	16c	.	16ee-
=52	=52	=52	=52
1r	8d	1r	4ff
.	16F	.	.
.	16G	.	.
.	16A-	.	8r
.	16B-	.	.
.	16c	.	16ee-
.	16d	.	16ff
.	8e-	.	4gg
.	16G	.	.
.	16A-	.	.
.	16B-	.	8r
.	16c	.	.
.	16d	.	16ff
.	16e-	.	16gg
=53	=53	=53	=53
4r	8r	4r	4aa-
.	8b-	.	.
4B-	8B-	2ee-	4gg
.	8b-	.	.
4A-	8c	.	2ff
.	8a-	.	.
4B-	8d	4dd	.
.	8b-	.	.
=54	=54	=54	=54
4c	8g	2r	4ee-
.	16cc	.	.
.	16b-	.	.
4C	16a-	.	2cc
.	16g	.	.
.	16f	.	.
.	16e-	.	.
4GG	8d	2d	.
.	16b-	.	.
.	16a-	.	.
4G	16g	.	[4b-
.	16f	.	.
.	16e-	.	.
.	16d	.	.
=55	=55	=55	=55
4A-	8c	2c	4b-]
.	16a-	.	.
.	16g	.	.
4AA-	16f	.	[4a-
.	16e-	.	.
.	16d	.	.
.	16c	.	.
4E-	8B-	2B-	4a-]
.	16g	.	.
.	16f	.	.
4E	16e-	.	[4g
.	16d	.	.
.	16c	.	.
.	16B-	.	.
=56	=56	=56	=56
4F	8A-	2A-	4g]
.	16f	.	.
.	16e-	.	.
4FF	16d	.	[4f
.	16c	.	.
.	16B-	.	.
.	16A-	.	.
4C	4G	4r	8f]
.	.	.	8e
4r	4r	8r	[4ccc
.	.	8c	.
=57	=57	=57	=57
1r	2r	8d	4ccc]
.	.	16g	.
.	.	16a-	.
.	.	16g	2bb-
.	.	16f	.
.	.	16e	.
.	.	16d	.
.	4r	8e	.
.	.	8c	.
.	8r	[4f	4aa-
.	8A-	.	.
=58	=58	=58	=58
2r	4B-	4f]	2gg
.	4c	4e	.
4r	4F	4f	4ff
8r	4r	4r	4cc
8AA-	.	.	.
=59	=59	=59	=59
4GG	2r	1r	4b-
4FF	.	.	4a
4C	4r	.	4g
8r	[4BB-	.	4r
8FF	.	.	.
=60	=60	=60	=60
4EE	4BB-]	2G	2r
4EE	2C	.	.
4FF	.	2A-	8r
.	.	.	8f
8r	[4D-	.	8ff
8FF	.	.	8f
=61	=61	=61	=61
4GG	4D-]	2B-	8ee-
.	.	.	8g
4GG	2E-	.	8dd-
.	.	.	8e-
4AA-	.	8r	8cc
.	.	8c	16a-
.	.	.	16b-
8r	[4D-	4F	16cc
.	.	.	16dd-
8GG	.	.	16ee-
.	.	.	16ff
=62	=62	=62	=62
4BB-	4D-]	8r	8gg
.	.	8d-	16b-
.	.	.	16cc
8r	2E-	4G	16dd-
.	.	.	16ee-
8AA-	.	.	16ff
.	.	.	16gg
4C	.	8r	8aa-
.	.	8e-	16cc
.	.	.	16dd-
8r	4F	4A-	16ee-
.	.	.	16ff
8BB-	.	.	16gg
.	.	.	16aa-
=63	=63	=63	=63
4D-	4G	8bb-	4r
.	.	8ee-	.
4C	2F	2aa-	8r
.	.	.	8cc
2BB-	.	.	4dd-
.	4D-	4gg	4ee-
=64	=64	=64	=64
4AA-	4C	4aa-	4a-
2C	4r	4r	8r
.	.	.	8ee-
.	2r	2dd-	4ff
[4BB-	.	.	4ffM
=65	=65	=65	=65
4BB-]	8r	2cc	4ee-
.	8E-	.	.
2AA-	8EE-	.	8r
.	8E-	.	8ee-
.	8FF	2b-	4dd-
.	8D-	.	.
4GG	8GG	.	4dd-M
.	8E-	.	.
=66	=66	=66	=66
4AA-	8AA-	4a-	4cc
.	16F	.	.
.	16E-	.	.
4r	16D-	2f	8r
.	16C	.	.
.	16BB-	.	8dd
.	16AA-	.	.
2r	8GG	.	4b-T
.	16E-	.	.
.	16D-	.	.
.	16C	[4e-	8r
.	16BB-	.	.
.	16AA-	.	8cc
.	16GG	.	.
=67	=67	=67	=67
1r	8FF	4e-]	4a-T
.	16D-	.	.
.	16C	.	.
.	16BB-	2d-	8r
.	16AA-	.	.
.	16GG	.	8b-
.	16FF	.	.
.	4EE-	.	8g
.	.	.	8e-
.	[4e-	4r	8r
.	.	.	8ee-
=68	=68	=68	=68
1r	4e-]	2a-	8ff
.	.	.	16bb-
.	.	.	16ccc
.	2d-	.	16bb-
.	.	.	16aa-
.	.	.	16gg
.	.	.	16ff
.	.	4b-	8gg
.	.	.	8ee-
.	4c	8r	[4aa-
.	.	8ee-	.
=69	=69	=69	=69
1r	8B-	2dd-	4aa-]
.	16e-	.	.
.	16f	.	.
.	16e-	.	2gg
.	16d-	.	.
.	16c	.	.
.	16B-	.	.
.	8A-	2cc	.
.	16d-	.	.
.	16e-	.	.
.	16d-	.	[4ff
.	16c	.	.
.	16B-	.	.
.	16A-	.	.
=70	=70	=70	=70
1r	8G	2b-	4ff]
.	16c	.	.
.	16d-	.	.
.	16c	.	2ee-
.	16B-	.	.
.	16A-	.	.
.	16G	.	.
.	8F	2a-	.
.	16B-	.	.
.	16c	.	.
.	16B-	.	4dd
.	16A-	.	.
.	16G	.	.
.	16F	.	.
=71	=71	=71	=71
1r	8G	4g	4ee-
.	8E-	.	.
.	2e-	4r	8r
.	.	.	8g
.	.	2r	8a-
.	.	.	16b-
.	.	.	16cc
.	4d	.	16b-
.	.	.	16a-
.	.	.	16g
.	.	.	16f
=72	=72	=72	=72
4r	4e-	1r	8g
.	.	.	8e-
8r	4r	.	2ee-
8GG	.	.	.
4AA-	2f	.	.
4BB-	.	.	4ddT
=73	=73	=73	=73
4EE-	4e-	1r	4ee-
8r	2gg	.	4r
8BB-	.	.	.
4C	.	.	2aa-
4C	[4ff	.	.
=74	=74	=74	=74
4BB-	4ff]	8r	2gg
.	.	8B-	.
8r	2ee-	8BB-	.
8BB-	.	8B-	.
4AA-	.	8C	2ff
.	.	8A-	.
4AA-	4dd	8D	.
.	.	8B-	.
=75	=75	=75	=75
4GG	2r	8E-	4ee-
.	.	16cc	.
.	.	16b-	.
8r	.	16a-	2cc
.	.	16g	.
8AA-	.	16f	.
.	.	16e-	.
4FF	2d	8d	.
.	.	16b-	.
.	.	16a-	.
8r	.	16g	[4b-
.	.	16f	.
8GG	.	16e-	.
.	.	16d	.
=76	=76	=76	=76
4EE-	2c	8c	4b-]
.	.	16a-	.
.	.	16g	.
8r	.	16f	2a-
.	.	16e-	.
8FF	.	16d	.
.	.	16c	.
4DD	2B-	8B-	.
.	.	16g	.
.	.	16f	.
8r	.	16e-	[4g
.	.	16d	.
8EE-	.	16c	.
.	.	16B-	.
=77	=77	=77	=77
4CC	2A-	8A-	4g]
.	.	16f	.
.	.	16e-	.
8r	.	16d	[4f
.	.	16c	.
8DD	.	16B-	.
.	.	16A-	.
4EE-	2r	4G	8f]
.	.	.	8B-
8r	.	8r	[4e-
8GG	.	8G	.
=78	=78	=78	=78
4AA	2F	8F	4e-]
.	.	16d	.
.	.	16c	.
4BB	.	16B	[4d
.	.	16A	.
.	.	16G	.
.	.	16F	.
4C	4E-	4E-	8d]
.	.	.	8G
8r	8r	4r	[4c
8CC	8E-	.	.
=79	=79	=79	=79
4GG	4D	4r	8c]
.	.	.	8B
4r	8r	2g	4r
.	8GG	.	.
2r	8C	.	2a
.	16D	.	.
.	16E-	.	.
.	16D	[4f	.
.	16C	.	.
.	16BB	.	.
.	16AA	.	.
=80	=80	=80	=80
1r	8BB	4f]	4.g
.	8GG	.	.
.	2c	4e-	.
.	.	.	8ee-
.	.	2d 2f	4ff
.	4B	.	4gg
=81	=81	=81	=81
2r	4c	4e- 4g	4cc
.	4r	2ee-	8r
.	.	.	8gg
2F	2r	.	4aa-
.	.	[4dd	4aa-M
=82	=82	=82	=82
2E-	8r	4dd]	4gg
.	8g	.	.
.	8G	2cc	8r
.	8g	.	8gg
2D	8A	.	4ff
.	8f	.	.
.	8B	4b	4ffM
.	8g	.	.
=83	=83	=83	=83
8r	8c	4cc	4ee-
8C	16e-	.	.
.	16d	.	.
4F	16c	2a-	8r
.	16B-	.	.
.	16A-	.	8ff
.	16G	.	.
8r	8F	.	4ddT
8BB-	16d	.	.
.	16c	.	.
4E-	16B-	[4g	8r
.	16A-	.	.
.	16G	.	8ee-
.	16F	.	.
=84	=84	=84	=84
8r	8E-	4g]	4ccT
8AA-	16c	.	.
.	16B-	.	.
4D	16A-	2f	8r
.	16G	.	.
.	16F	.	8dd
.	16E-	.	.
[2GG	8D	.	4bT
.	8GG	.	.
.	8r	4e-	[4cc
.	8E-	.	.
=85	=85	=85	=85
2GG]	4F	2d	4cc]
.	4G	.	4bT
4CC	4C	4c	8cc
.	.	.	16aa-
.	.	.	16bb-
4r	4c	4e-	16aa-
.	.	.	16gg
.	.	.	16ff
.	.	.	16ee-
=86	=86	=86	=86
1r	4B	4g	8dd
.	.	.	16gg
.	.	.	16aa-
.	4B-	4d	16gg
.	.	.	16ff
.	.	.	16ee-
.	.	.	16dd
.	4A	4f	8cc
.	.	.	16ff
.	.	.	16gg
.	4A-	4c	16ff
.	.	.	16ee-
.	.	.	16dd
.	.	.	16cc
=87	=87	=87	=87
1r	4G	4e-	8b-
.	.	.	16ee-
.	.	.	16ff
.	4G	4B-	16ee-
.	.	.	16dd
.	.	.	16cc
.	.	.	16b-
.	4F#	4d	8a
.	.	.	16dd
.	.	.	16ee-
.	4F	4A	16dd
.	.	.	16cc
.	.	.	16b-
.	.	.	16a
=88	=88	=88	=88
1r	4E	4c	8g
.	.	.	16cc
.	.	.	16dd
.	4E-	4G	16cc
.	.	.	16b-
.	.	.	16a
.	.	.	16g
.	4D	4A	8f#
.	.	.	8d
.	8r	4r	[4dd
.	8d	.	.
=89	=89	=89	=89
1r	2e	8g	4dd]
.	.	16a	.
.	.	16b-	.
.	.	16a	2cc
.	.	16g	.
.	.	16f#	.
.	.	16e	.
.	4d	8f#	.
.	.	8d	.
.	8r	[4g	4b-
.	8B-	.	.
=90	=90	=90	=90
1r	4c	4g]	2a
.	4d	4f#	.
.	4G	4g	4g
.	8r	8r	[4dd
.	8g	8b-	.
=91	=91	=91	=91
1r	4f	4a	4dd]
.	4e-	4g	4gg
.	4d	4dd	4ff#
.	4r	8r	[4cc
.	.	8g	.
=92	=92	=92	=92
2AA	2r	4f#	4cc]
.	.	4f#T	2dd
2BB-	8r	4g	.
.	8GG	.	.
.	8G	8r	[4ee-
.	8GG	8g	.
=93	=93	=93	=93
2C	8F	4a	4ee-]
.	8AA	.	.
.	8E-	4aT	2ff
.	8GG	.	.
8r	8D	4b-	.
8D	16BB-	.	.
.	16C	.	.
4GG	16D	8r	[4ee-
.	16E-	.	.
.	16F	16a	.
.	16G	16b-	.
=94	=94	=94	=94
8r	8A	4cc	4ee-]
8E-	16C	.	.
.	16D	.	.
4AA	16E-	8r	2ff
.	16F	.	.
.	16G	16b-	.
.	16A	16cc	.
8r	8B-	4dd	.
8F	16D	.	.
.	16E-	.	.
4BB-	16F	8r	[4gg
.	16G	.	.
.	16A	16cc	.
.	16B-	16dd	.
=95	=95	=95	=95
8r	8c	4ee-	4gg]
8G	16E-	.	.
.	16F	.	.
4C	16G	8r	2aa
.	16A	.	.
.	16B-	16dd	.
.	16c	16ee-	.
8r	8d	4ff	.
8A	16F	.	.
.	16G	.	.
4D	16A	8r	[4bb-
.	16B-	.	.
.	16c	16ee-	.
.	16d	16ff	.
=96	=96	=96	=96
8r	8e-	4gg	4bb-]
8B-	16G	.	.
.	16A	.	.
4E-	16B-	8r	2ccc
.	16c	.	.
.	16d	16ff	.
.	16e-	16gg	.
4F	8f	8aa	.
.	8f	8ff	.
8r	8F	4dd	[4bb-
8D	8f	.	.
=97	=97	=97	=97
4E-	8G	2cc	4bb-]
.	8e-	.	.
4F	8A	.	2aa
.	8f	.	.
4G	4d	8b-	.
.	.	16gg	.
.	.	16ff	.
4GG	8r	16ee-	[4gg
.	.	16dd	.
.	8A	16cc	.
.	.	16b-	.
=98	=98	=98	=98
4DD	4F	8a	4gg]
.	.	16ff	.
.	.	16ee-	.
4D	8r	16dd	2ff
.	.	16cc	.
.	8G	16b-	.
.	.	16a-	.
4E-	4E-	8g	.
.	.	16ee-	.
.	.	16dd	.
4EE-	8r	16cc	[4ee-
.	.	16b-	.
.	8F	16a-	.
.	.	16g	.
=99	=99	=99	=99
4BB-	4DT	8f	4ee-]
.	.	16dd	.
.	.	16cc	.
4B-	8r	16b-	2dd
.	.	16a	.
.	8E-	16g	.
.	.	16f	.
4c	4CT	8e-	.
.	.	16cc	.
.	.	16b-	.
4C	8r	16a	[4cc
.	.	16g	.
.	8D	16f	.
.	.	16e-	.
=100	=100	=100	=100
4GG	4BB-	8d	4cc]
.	.	16b-	.
.	.	16a	.
4G	8r	16g	2b-
.	.	16f	.
.	8C	16e-	.
.	.	16d	.
4A	4AA	8c	.
.	.	16a	.
.	.	16g	.
4D	8r	16f#	[4a
.	.	16e	.
.	8BB-	16d	.
.	.	16c	.
=101	=101	=101	=101
4G	4GG	8B-	4a]
.	.	16g	.
.	.	16f	.
4GG	4G	16e-	[4g
.	.	16d	.
.	.	16c	.
.	.	16B-	.
4D	4D	4A	8g]
.	.	.	8f#
8r	4r	[4dd	8r
8FF	.	.	8ff
=102	=102	=102	=102
4GG	2r	4dd]	8ee
.	.	.	16aa
.	.	.	16bb-
4AA	.	2cc	16aa
.	.	.	16gg
.	.	.	16ff#
.	.	.	16ee
4DD	4r	.	8ff#
.	.	.	8dd
4r	8r	8r	[4gg
.	8BB-	8b-	.
=103	=103	=103	=103
2r	4C	8a	4gg]
.	.	16dd	.
.	.	16ee-	.
.	4D	16dd	2ff
.	.	16cc	.
.	.	16b	.
.	.	16a	.
4r	4GG	8b	.
.	.	8g	.
8r	4r	[4cc	8r
8EE-	.	.	8ee-
=104	=104	=104	=104
4FF	2r	4cc]	8dd
.	.	.	16gg
.	.	.	16aa-
4GG	.	2b-	16gg
.	.	.	16ff
.	.	.	16ee
.	.	.	16dd
4CC	4r	.	8ee
.	.	.	8cc
4r	8r	8r	[4ff
.	8AA	8a	.
=105	=105	=105	=105
2r	4BB-	8g	4ff]
.	.	16cc	.
.	.	16dd	.
.	4C	16cc	2ee-
.	.	16b-	.
.	.	16a	.
.	.	16g	.
4r	4FF	8a	.
.	.	8f	.
8r	4r	[4b-	8r
8D	.	.	8dd
=106	=106	=106	=106
4E-	2r	4b-]	8cc
.	.	.	16ff
.	.	.	16gg
4F	.	2a-	16ff
.	.	.	16ee-
.	.	.	16dd
.	.	.	16cc
4BB-	8r	.	8dd
.	8B-	.	8b-
8r	8BB-	8r	[4ee-
8GG	8B-	8g	.
=107	=107	=107	=107
4AA-	8C	2f	4ee-]
.	8A-	.	.
4BB-	8D	.	2dd
.	8B-	.	.
4C	4E-	8e-	.
.	.	16cc	.
.	.	16b-	.
8r	4F	16a-	[4cc
.	.	16g	.
8D	.	16f	.
.	.	16e-	.
=108	=108	=108	=108
4BB-	4G	8d	4cc]
.	.	16b-	.
.	.	16a-	.
8r	4GG	16g	2b-
.	.	16f	.
8C	.	16e-	.
.	.	16d	.
4AA-	4AA-	8c	.
.	.	16a-	.
.	.	16g	.
8r	4A-	16f	[4a-
.	.	16e-	.
8BB-	.	16d	.
.	.	16c	.
=109	=109	=109	=109
4GG	4E-	8B-	4a-]
.	.	16g	.
.	.	16f	.
8r	4EE-	16e-	2g
.	.	16d	.
8AA-	.	16c	.
.	.	16B-	.
4FF	4FF	8A-	.
.	.	16f	.
.	.	16e-	.
8r	4F	16d	[4f
.	.	16c	.
8GG	.	16B-	.
.	.	16A-	.
=110	=110	=110	=110
4EE-	4C	8G	4f]
.	.	16e-	.
.	.	16d	.
8r	4CC	16c	2e-
.	.	16B-	.
8FF	.	16A-	.
.	.	16G	.
4DD	4DD	8F	.
.	.	16d	.
.	.	16c	.
8r	4GG	16B	[4d
.	.	16A	.
8EE-	.	16G	.
.	.	16F	.
=111	=111	=111	=111
4CC	4CC	8E-	4d]
.	.	16c	.
.	.	16B-	.
4FF	4r	16A-	2c
.	.	16G	.
.	.	16F	.
.	.	16E-	.
4GG	4D	8D	.
.	.	8g	.
4r	4r	8G	4B
.	.	8g	.
=112	=112	=112	=112
4r	1r	8A	2r
.	.	8f#	.
4GG	.	8B	.
.	.	8f	.
4C	.	4e-	8r
.	.	.	8cc
4r	.	8r	8ccc
.	.	8e	8cc
=113	=113	=113	=113
4r	1r	4f	8bb
.	.	.	8dd
4CC	.	4g	8bb-
.	.	.	8ee
4FF	.	8c	4aa-
.	.	8f	.
4r	.	8F	8r
.	.	8f	8aa-
=114	=114	=114	=114
4r	1r	8G	4bb-
.	.	8e	.
4FF	.	8A	4ccc
.	.	8e-	.
4BB-	.	4d	8ff
.	.	.	8b-
4r	.	8r	8bb-
.	.	8d	8b-
=115	=115	=115	=115
4r	1r	4e-	8aa
.	.	.	8cc
4BB-	.	4f	8aa-
.	.	.	8dd
4E-	.	8B-	4gg
.	.	8e-	.
4r	.	8E-	8r
.	.	8e-	8gg
=116	=116	=116	=116
4r	1r	8F	4aa-
.	.	8d	.
4EE-	.	8G	4bb-
.	.	8d-	.
4AA-	.	4c	8ee-
.	.	.	8a-
4r	.	8r	8aa-
.	.	8c	8a-
=117	=117	=117	=117
4r	1r	4d-	8gg
.	.	.	8b-
4AA-	.	4e-	8gg-
.	.	.	8cc
4D	.	8A-	4ff
.	.	8d	.
4r	.	8D	8r
.	.	8d	8ff
=118	=118	=118	=118
4r	1r	8E	4gg
.	.	8c#	.
4DD	.	8F#	4aa
.	.	8c	.
4GG	.	4B	8dd
.	.	.	8g
4r	.	8r	8gg
.	.	8B	8g
=119	=119	=119	=119
4r	1r	4c	8ff#
.	.	.	8a
4GG	.	4d	8ff
.	.	.	8b
4C	.	4G	8ee-
.	.	.	16cc
.	.	.	16dd
[4AA-	.	8r	16ee-
.	.	.	16ff
.	.	8f	16gg
.	.	.	16aa-
=120	=120	=120	=120
4AA-]	2F	4dT	8bb-
.	.	.	16b-
.	.	.	16cc
2GG	.	8r	16dd
.	.	.	16ee-
.	.	8e-	16ff
.	.	.	16gg
.	2E-	4cT	8aa-
.	.	.	16a-
.	.	.	16b-
[4FF	.	8r	16cc
.	.	.	16dd
.	.	8d	16ee-
.	.	.	16ff
=121	=121	=121	=121
4FF]	2D	4B-T	8gg
.	.	.	16g
.	.	.	16a-
2EE-	.	8r	16b-
.	.	.	16cc
.	.	8c	16dd
.	.	.	16ee-
.	2C	4A-T	8ff
.	.	.	16f
.	.	.	16g
4DD	.	8r	16a-
.	.	.	16b-
.	.	8B-	16cc
.	.	.	16dd
=122	=122	=122	=122
4CC	4BB-	4G	8ee-
.	.	.	16ff
.	.	.	16ee-
4FF	4AA-	8r	16dd
.	.	.	16ee-
.	.	8A-	16cc
.	.	.	16dd
2GG	4GG	4D	8b
.	.	.	8g
.	4r	[4gg	8r
.	.	.	8bb-
=123	=123	=123	=123
[1GG	2r	4gg]	4aa-
.	.	2ff	4aa-M
.	8r	.	4gg
.	8g	.	.
.	8G	[4ee-	8r
.	8g	.	8gg
=124	=124	=124	=124
1GG_	8A	4ee-]	4ff
.	8f	.	.
.	8B	4dd	4ffM
.	8g	.	.
.	8c	4cc	4ee-
.	16e-	.	.
.	16d	.	.
.	16c	[4a-	8r
.	16B-	.	.
.	16A-	.	8ff
.	16G	.	.
=125	=125	=125	=125
1GG_	8F	4a-]	4ddT
.	16d	.	.
.	16c	.	.
.	16B-	2g	8r
.	16A-	.	.
.	16G	.	8ee-
.	16F	.	.
.	8E-	.	4ccT
.	16c	.	.
.	16B-	.	.
.	16A-	4f	8r
.	16G	.	.
.	16F	.	8dd
.	16E-	.	.
=126	=126	=126	=126
1GG_	8D	4g	4b
.	8GG	.	.
.	4E-	8r	2gg
.	.	8g	.
.	4F	4a-	.
.	4B-	4a-M	[4ff
=127	=127	=127	=127
1GG_	8E-	4g	4ff]
.	8G	.	.
.	8GG	8r	2ee-
.	8G	8g	.
.	8AA	4f	.
.	8F	.	.
.	8BB	4fM	[4dd
.	8G	.	.
=128	=128	=128	=128
1GG_	8C	4e-	4dd]
.	16C	.	.
.	16D	.	.
.	16E-	8r	2cc
.	16F	.	.
.	16G	8f	.
.	16A-	.	.
.	8B-	4dT	.
.	16BB-	.	.
.	16C	.	.
.	16D	8r	[4b-
.	16E-	.	.
.	16F	8e-	.
.	16G	.	.
=129	=129	=129	=129
1GG_	8A-	4cT	4b-]
.	16AA-	.	.
.	16BB-	.	.
.	16C	8r	4a-
.	16D	.	.
.	16E-	8d	.
.	16F	.	.
.	4G	4BT	8g
.	.	.	8gg
.	[4c	8r	8g
.	.	8e-	8gg
=130	=130	=130	=130
1GG_	4c]	2f	8a
.	.	.	8ff
.	4B	.	8b
.	.	.	8gg
.	4c	4e-	8cc
.	.	.	16aa-
.	.	.	16gg
.	[4A-	8r	16ff
.	.	.	16ee-
.	.	8f	16dd
.	.	.	16cc
=131	=131	=131	=131
1GG_	4A-]	4dT	8b-
.	.	.	16gg
.	.	.	16ff
.	2G	8r	16ee-
.	.	.	16dd
.	.	8e-	16cc
.	.	.	16b-
.	.	4cT	8a-
.	.	.	16ff
.	.	.	16ee-
.	4F	8r	16dd
.	.	.	16cc
.	.	8d	16b-
.	.	.	16a-
=132	=132	=132	=132
1GG_	4G	4B-T	8g
.	.	.	16ee-
.	.	.	16dd
.	2E-	8r	16cc
.	.	.	16b-
.	.	8c	16a-
.	.	.	16g
.	.	4A-T	8f
.	.	.	16dd
.	.	.	16cc
.	[4D	8r	16b-
.	.	.	16a-
.	.	8B-	16g
.	.	.	16f
=133	=133	=133	=133
1GG_	4D]	4G	8e-
.	.	.	16cc
.	.	.	16b-
.	4C	8r	16a-
.	.	.	16g
.	.	8A-	16f
.	.	.	16e-
.	4BB	4F	8d
.	.	.	8G
.	4C	4E-	8r
.	.	.	8c 8g
=134	=134	=134	=134
1GG_	4D	4F	4B 4a-
.	4GG	4D	4B 4a-
.	8C	4E-	4c 4g
.	8G	.	.
.	8GG	8r	8r
.	8G	8c	8g
=135	=135	=135	=135
1GG_	8AA	4d	4f
.	8F	.	.
.	8BB	4d	4f
.	8G	.	.
.	8C	4e-	4e-
.	16E-	.	.
.	16D	.	.
.	16C	8r	8r
.	16BB-	.	.
.	16AA-	16d	8f
.	16GG	16e-	.
=136	=136	=136	=136
1GG]	8FF	4f	4d
.	16D	.	.
.	16C	.	.
.	16BB-	8r	8r
.	16AA-	.	.
.	16GG	8e-	16e-
.	16FF	.	16f
.	8EE-	4c	4g
.	16C	.	.
.	16BB-	.	.
.	16AA-	8r	8r
.	16GG	.	.
.	16FF	8d	16f
.	16EE-	.	16g
=137	=137	=137	=137
4FF	4DD	4B	4a-
4r	4r	4r	4r
2r	2r	8E- 8G 8c	4r
.	.	8E- 8G 8c	.
.	.	8E- 8G 8c	8r
.	.	8E- 8G 8c	8gg
=138	=138	=138	=138
1r	1r	8F 8A- 8c	4aa-
.	.	8F 8A- 8c	.
.	.	8F 8B- 8d	4aa-M
.	.	8F 8B- 8d	.
.	.	8E- 8B- 8d	4gg
.	.	8E- 8B- 8d	.
.	.	8E- 8G 8c	8r
.	.	8E- 8G 8c	8gg
=139	=139	=139	=139
1r	1r	8D 8A- 8c	4ff
.	.	8D 8A- 8c	.
.	.	8D 8G 8B	4ffM
.	.	8D 8G 8B	.
.	.	8C 8G 8c	4ee-
.	.	8C 8G 8c	.
.	.	8C 8F 8A-	8r
.	.	8C 8F 8A-	8ff
=140	=140	=140	=140
1r	1r	8BB- 8F 8A-	4ddT
.	.	8BB- 8F 8A-	.
.	.	8BB- 8E- 8G	8r
.	.	8BB- 8E- 8G	8ee-
.	.	8AA- 8E- 8G	4ccT
.	.	8AA- 8E- 8G	.
.	.	8AA- 8D 8F	8r
.	.	8AA- 8D 8F	8dd
=141	=141	=141	=141
4r	1r	8GG 8D 8F	4bT
.	.	8GG 8D 8F	.
4FF#	.	8FF# 8E- 8A	2cc
.	.	8FF# 8E- 8A	.
2GG	.	8GG 8E- 8G	.
.	.	8GG 8E- 8G	.
.	.	8GG 8D 8G	4b
.	.	8GG 8D 8G	.
=142	=142	=142	=142
1CC	1C	1G 1e-	1cc
==	==	==	==
*-	*-	*-	*-
